2 Export/Icons/Outlined/Time.svg

<svg xmlns="http://www.w3.org/2000/svg" xmlns:xlink="http://www.w3.org/1999/xlink" width="24" height="24" viewBox="0 0 24 24">
  <defs>
    <path id="time-a" d="M11.99 2C6.47 2 2 6.48 2 12s4.47 10 9.99 10C17.52 22 22 17.52 22 12S17.52 2 11.99 2zM12 20c-4.42 0-8-3.58-8-8s3.58-8 8-8 8 3.58 8 8-3.58 8-8 8zm-.22-13h-.06c-.4 0-.72.32-.72.72v4.72c0 .35.18.68.49.86l4.15 2.49c.34.2.78.1.98-.24a.71.71 0 0 0-.25-.99l-3.87-2.3V7.72c0-.4-.32-.72-.72-.72z"/>
  </defs>
  <g fill="none" fill-rule="evenodd">
    <polygon points="0 0 24 0 24 24 0 24"/>
    <mask id="time-b" fill="#fff">
      <use xlink:href="#time-a"/>
    </mask>
    <use fill="#000" xlink:href="#time-a"/>
    <g fill="#000" mask="url(#time-b)">
      <rect width="24" height="24"/>
    </g>
  </g>
</svg>

<svg xmlns="http://www.w3.org/2000/svg" xmlns:xlink="http://www.w3.org/1999/xlink" width="24" height="24" viewBox="0 0 24 24">
  <defs>
    <path id="time-a" d="M11.99,2 C6.47,2 2,6.48 2,12 C2,17.52 6.47,22 11.99,22 C17.52,22 22,17.52 22,12 C22,6.48 17.52,2 11.99,2 Z M12,20 C7.58,20 4,16.42 4,12 C4,7.58 7.58,4 12,4 C16.42,4 20,7.58 20,12 C20,16.42 16.42,20 12,20 Z M11.78,7 L11.72,7 C11.32,7 11,7.32 11,7.72 L11,12.44 C11,12.79 11.18,13.12 11.49,13.3 L15.64,15.79 C15.98,15.99 16.42,15.89 16.62,15.55 C16.83,15.21 16.72,14.76 16.37,14.56 L12.5,12.26 L12.5,7.72 C12.5,7.32 12.18,7 11.78,7 L11.78,7 Z"/>
  </defs>
  <g fill="none" fill-rule="evenodd">
    <polygon points="0 0 24 0 24 24 0 24"/>
    <mask id="time-b" fill="#fff">
      <use xlink:href="#time-a"/>
    </mask>
    <use fill="#000" xlink:href="#time-a"/>
    <g fill="#000" mask="url(#time-b)">
      <rect width="24" height="24"/>
    </g>
  </g>
</svg>
